script-text.svg

<svg fill="currentColor" viewBox="0 0 24 24"><path d="M17.8 20c-.4 1.2-1.5 2-2.8 2H5c-1.7 0-3-1.3-3-3v-1h12.2c.4 1.2 1.5 2 2.8 2zM19 2c1.7 0 3 1.3 3 3v1h-2V5c0-.6-.4-1-1-1s-1 .4-1 1v13h-1c-.6 0-1-.4-1-1v-1H5V5c0-1.7 1.3-3 3-3zM8 6v2h7V6zm0 4v2h6v-2z"/></svg>

<svg  viewBox="0 0 24 24" fill="currentColor"><path  d="M17.8,20C17.4,21.2 16.3,22 15,22H5C3.3,22 2,20.7 2,19V18H5L14.2,18C14.6,19.2 15.7,20 17,20H17.8M19,2C20.7,2 22,3.3 22,5V6H20V5C20,4.4 19.6,4 19,4C18.4,4 18,4.4 18,5V18H17C16.4,18 16,17.6 16,17V16H5V5C5,3.3 6.3,2 8,2H19M8,6V8H15V6H8M8,10V12H14V10H8Z"/></svg>
